X: 4
T: The Cameronian
R: reel
M: 4/4
L: 1/8
K: Dmaj
||A2 FA DAFA|GE~E2 GBdB|A2 FA DAFA|GBAG FDD B|| A ~F3 D~F3|G~E3 GBdB|A2FA DAFA|GBAG FDD F|||: A ~F3 D~F3|G~E3 GBdB|A2FA DAFA|GBAG FDD B:||:Addc dddA|(3Bcd ef gfed|(3cBA eA fAeA|(3Bcd ef gfeg|faeg faeg|fdec defg|af ge fdec|dBAG FDD B:|


Tune 284	Setting 13035

